X: 1378
T: Muhayyer Peşrev
C: Kantemiroğlu
O: Turkey
F: http://compmusic.upf.edu/node/140
N: muhayyer--pesrev--muhammes----kantemiroglu
N: makam= muhayyer
N: form= pesrev
N: usul= muhammes = 32/4
M: 32/4
L: 1/16
K: C _2/4B ^3/4f  
Q: 1/4=144
%%MIDI tuningsystem comma53
e2 a2 a2 g f g f g a e4 e2 a2 b a g f g f g a e4  | 
w:  1. HANE  | 
c'3 b a2 g2 b c'2 b a3 g f2 g2 a2 b2 c'2 b2 d' c' c' b  | \
w:   | 
a3 g f2 g2 a2 b2 c'2 b2 d' c' c' b a2 ^g2 a4 a4  | 
w:   | 
e2 a2 a2 g f g f g a e4 c3 B A2 c/B/ A A4 A4  | \
w:   | 
e2 a2 a2 g f g f g a e4 e2 a2 b a g f g f g a e4  | 
w:  1. HANE  | 
c'3 b a2 g2 b c'2 b a3 g f2 g2 a2 b2 c'2 b2 d' c' c' b  | \
w:   | 
a3 g f2 g2 a2 b2 c'2 b2 d' c' c' b a2 ^g2 a4 a4  | 
w:   | 
e2 a2 a2 g f g f g a e4 c3 B A2 c/B/ A A4 A4  | \
w:   | 
a b c'2 d'/c'/ b a2 b c' b a a3 g g3 f f3 e e3 d d4  | 
w:  MÜLÂZİME  | 
a b c' d' c' b a2 b c' b a a3 g g3 f e g f e e4 e4  | 
w:   | 
a b c'2 d'/c'/ b a2 b c' b a a3 g g3 f f3 e e3 d d4  | \
w:   | 
a b c' d' c' b a2 b c' b a a3 g g3 f e g f e e4 e4  | 
w:   | 
a3 =b c'2 a2 _2/4b c' b c' a4 f2 g2 a2 b2 c' d' c' b a4  | \
w:   | 
e2 f2 g2 f2 g f g a e4 c3 B A2 c/B/ A A4 A4  | 
w:   | 
a3 =b c'2 a2 _2/4b c' b c' a4 f2 g2 a2 b2 c' d' c' b a4  | \
w:   | 
e2 f2 g2 f2 g f g a e4 c3 B A2 c/B/ A A4 A4  | 
w:   | 
e4 g f e d d3 c _e d c B c3 B A2 B2 c4 G4  | \
w:   | 
e4 g f e d d3 c _e d c B c3 B A2 c/B/ A A4 A4  | 
w:   | 
e4 g f e d d3 c _e d c B c3 B A2 B2 c4 G4  | \
w:   | 
e4 g f e d d3 c _e d c B c3 B A2 c/B/ A A4 A4  | 
w:   | 
c3 B c d e d c3 B c B2 A A4 c3 B c d e d c3 B  | \
w:   | 
c B2 A A4 e4 e d c2 c3 B A2 c/B/ A A4 A4  | 
w:   | 
c3 B c d e d c3 B c B2 A A4 c3 B c d e d c3 B  | \
w:   | 
c B2 A A4 e4 e d c2 c3 B A2 c/B/ A A4 A4  | 
w:   | 
A2 e4 a4 c' b a4 g3 f e f g f f e d2 d4  | \
w:  2. HANE  | 
A2 d4 e4 f g a4 a b c' d' c' b a2 a4 a4  | 
w:   | 
A2 d4 e4 f g a4 g g3 f f3 e e3 e4  | \
w:   | 
A2 e4 a4 c' b a4 g3 f e f g f f e d2 d4  | 
w:   | 
A2 d4 e4 f g a4 a b c' d' c' b a2 a4 a4  | \
w:   | 
A2 d4 e4 f g a4 g g3 f f3 e e3 e4  | 
w:   | 
A2 d2 d2 d2 e f g f g3 f a3 g a g2 f g4 g4  | \
w:   | 
A2 d2 d2 d2 e f g f g3 f a3 f g f2 e e4 e4  | 
w:   | 
A2 d2 d2 d2 e f g f g3 f a3 g a g2 f g4 g4  | \
w:   | 
A2 d2 d2 d2 e f g f g3 f a3 f g f2 e e4 e4  | 
w:   | 
a b c'2 d'/c'/ b a2 b c' b a a3 g g3 f f3 e e3 d d4  | \
w:  MÜLÂZİME  | 
a b c' d' c' b a2 b c' b a a3 g g3 f e g f e e4 e4  | 
w:   | 
a b c'2 d'/c'/ b a2 b c' b a a3 g g3 f f3 e e3 d d4  | \
w:   | 
a b c' d' c' b a2 b c' b a a3 g g3 f e g f e e4 e4  | 
w:   | 
a3 =b c'2 a2 _2/4b c' b c' a4 f2 g2 a2 b2 c' d' c' b a4  | \
w:   | 
e2 f2 g2 f2 g f g a e4 c3 B A2 c/B/ A A4 A4  | 
w:   | 
a3 =b c'2 a2 _2/4b c' b c' a4 f2 g2 a2 b2 c' d' c' b a4  | \
w:   | 
e2 f2 g2 f2 g f g a e4 c3 B A2 c/B/ A A4 A4  | 
w:   | 
e4 g f e d d3 c _e d c B c3 B A2 B2 c4 G4  | \
w:   | 
e4 g f e d d3 c _e d c B c3 B A2 c/B/ A A4 A4  | 
w:   | 
e4 g f e d d3 c _e d c B c3 B A2 B2 c4 G4  | \
w:   | 
e4 g f e d d3 c _e d c B c3 B A2 c/B/ A A4 A4  | 
w:   | 
c3 B c d e d c3 B c B2 A A4 c3 B c d e d c3 B  | \
w:   | 
c B2 A A4 e4 e d c2 c3 B A2 c/B/ A A4 A4  | 
w:   | 
c3 B c d e d c3 B c B2 A A4 c3 B c d e d c3 B  | \
w:   | 
c B2 A A4 e4 e d c2 c3 B A2 c/B/ A A4 A4  | 
w:   | 
|


